X: 9760
T: Delia Keane's
R: jig
M: 6/8
K: Gmajor
E|:D3 BGG|dGG ABc|Add d2B|AGA BGE|D3 BGG|dGG ABc|Add d2B|1 AGG G2E:|2 AGG G2A||
B2d dBd|ege dBG|cec BAG|EAA A2c|
B2d dBd|ege dBG|cec BdB|1 AGG G2A:|2 AGG G2||

